X:12834
T:Pasodobre de Viascon
S:E. P. Band
R:Other
O:Spain
M:2/4
L:1/8
A:Galicia
K:D
dc|                                \
dB BA|[F2D2] dc|dB BA|[G2E2] cB|   \
cA AG|[E2C2] cB|AA BA|[F2D2] dc|   \
dB BA|[F2D2] dc|dB BA|[G2E2] cB|   \
cA AG|[E2C2] cB|AA Bc              \
|1 [d4D4]-|[d2D2] :|2             \
(d4|d4)| c/d/c/B/ (A2|A)d cB|      \
A/B/A/G/ (F2|F2) AF||
|:(A4|A)[FD] [AF][FD]|             \
[G/E/][A/F/][G/E/][F/D/] [E2C2]|-  \
[E2C2] [BG][GE]|                  \
B4-|[BG][GE] [BG][GE]|            \
[A/F/][B/G/][A/F/][G/E/] [F2D2]-   |\
[F2D2] [AF][FD]                   |
A4-|[AF][FD] [AF][BG]             |\
[c/A/][d/B/][c/A/][B/G/] [c2A2]-   |\
[cA][BG] [cA][dB]                 |\
[c/A/][d/B/][c/A/][B/G/] [A2F2]-   |\
[AF][GE] [AF][BG]                 |\
[A/F/][B/G/][A/F/][G/E/] [F2D2]     \
|1 [F2D2] [AF][FD] :|2 [F2D2] FA|dz3||
